pix/fp/path_folder.svg

<svg preserveAspectRatio="xMinYMid meet" viewBox="0 0 512 512" xmlns="http://www.w3.org/2000/svg"><path d="m64 480h384c35.3 0 64-28.7 64-64v-256c0-35.3-28.7-64-64-64h-160c-10.1 0-19.6-4.7-25.6-12.8l-19.2-25.6c-12.1-16.1-31.1-25.6-51.2-25.6h-128c-35.3 0-64 28.7-64 64v320c0 35.3 28.7 64 64 64z"/></svg>

<svg xmlns="http://www.w3.org/2000/svg" viewBox="0 0 512 512"
     preserveAspectRatio="xMinYMid meet"><!--!Font Awesome Free 6.5.2 by @fontawesome - https://fontawesome.com License - https://fontawesome.com/license/free Copyright 2024 Fonticons, Inc.-->
    <path d="M64 480H448c35.3 0 64-28.7 64-64V160c0-35.3-28.7-64-64-64H288c-10.1 0-19.6-4.7-25.6-12.8L243.2 57.6C231.1 41.5 212.1 32 192 32H64C28.7 32 0 60.7 0 96V416c0 35.3 28.7 64 64 64z"/>
</svg>
